site/img/logos/eventbrite.svg

<?xml version="1.0" encoding="UTF-8"?>
<svg width="400px" height="360px" viewBox="0 0 400 360" version="1.1" xmlns="http://www.w3.org/2000/svg" xmlns:xlink="http://www.w3.org/1999/xlink">
    <title>logos/eventbrite</title>
    <g id="logos/eventbrite" stroke="none" stroke-width="1" fill="none" fill-rule="evenodd">
        <path d="M372.638201,224.523065 C378.034766,223.300672 383.421311,225.515007 386.421183,229.701203 L362.56448,235.097767 C363.388092,230.047881 367.239632,225.743455 372.638201,224.523065 Z M386.555446,244.381943 C384.668701,247.11285 381.820059,249.030315 378.579833,249.750452 C373.147197,250.980861 367.724582,248.728452 364.738736,244.48815 L388.667581,239.07355 L392.565211,238.191824 L400.019805,236.506525 C399.974535,234.905117 399.76639,233.312475 399.398589,231.75322 C396.36465,218.87601 383.254985,210.848295 370.117266,213.820113 C356.979546,216.793934 348.787509,229.643089 351.821449,242.518294 C354.853384,255.395504 367.963049,263.425223 381.100768,260.453405 C388.841922,258.699973 394.863711,253.519832 397.885627,246.924921 L386.555446,244.381943 L386.555446,244.381943 Z M330.241202,259.80213 L330.241202,225.663298 L322.872777,225.663298 L322.872777,214.032528 L330.241202,214.032528 L330.241202,198.023187 L342.753697,198.023187 L342.753697,214.032528 L352.152096,214.032528 L352.152096,225.663298 L342.753697,225.663298 L342.753697,259.80213 L330.241202,259.80213 Z M306.338408,259.80213 L318.422064,259.80213 L318.422064,214.032528 L306.338408,214.032528 L306.338408,259.80213 Z M304.767332,197.975093 C304.767332,193.7388 308.107872,190.560578 312.430334,190.560578 C316.752796,190.560578 319.995143,193.7388 319.995143,197.975093 C319.995143,202.21339 316.752796,205.485797 312.430334,205.485797 C308.107872,205.485797 304.767332,202.21339 304.767332,197.975093 Z M302.132173,214.160779 C295.954079,214.481407 292.310947,215.429263 288.605693,218.11452 L288.605693,214.032528 L276.528049,214.032528 L276.528049,259.80213 L288.603689,259.80213 L288.603689,237.358192 C288.603689,230.296368 290.327063,226.278502 302.132173,225.883729 L302.132173,214.160779 L302.132173,214.160779 Z M234.798356,237.636738 C235.098944,244.315813 240.912325,249.916778 248.028256,249.916778 C255.246386,249.916778 261.159963,244.021236 261.159963,237.047584 C261.159963,230.170121 255.246386,224.276583 248.028256,224.276583 C240.914329,224.276583 235.098944,229.973736 234.798356,236.556623 L234.798356,237.636738 Z M223.015289,259.80213 L223.015289,192.193775 L235.098944,189.460424 L235.098944,217.439198 C238.832253,214.453352 243.254911,213.2009 248.068334,213.2009 C261.823262,213.2009 272.826803,223.793637 272.826803,237.083655 C272.826803,250.27548 261.825266,261.060594 248.068334,261.060594 C243.254911,261.060594 238.832253,259.810146 235.098944,256.824301 L235.098944,259.804134 L223.015289,259.804134 L223.015289,259.80213 Z M197.294937,259.80213 L197.294937,225.428839 L189.926512,225.428839 L189.926512,214.032528 L197.294937,214.032528 L197.294937,198.011164 L209.807432,195.179621 L209.807432,214.032528 L219.205831,214.032528 L219.205831,225.428839 L209.807432,225.428839 L209.807432,259.80213 L197.294937,259.80213 Z M175.151587,259.80213 L175.151587,235.348258 C175.151587,226.488914 170.33616,224.563144 165.520733,224.563144 C160.70731,224.563144 155.893887,226.392726 155.893887,235.155881 L155.893887,259.80213 L143.810231,259.80213 L143.810231,214.032528 L155.893887,214.032528 L155.893887,217.437194 C158.545077,215.511424 161.787425,213.198896 168.175931,213.198896 C178.391931,213.198896 187.235243,219.074399 187.235243,233.422488 L187.235243,259.80213 L175.151587,259.80213 Z M113.208323,224.523065 C118.606891,223.300672 123.993436,225.515007 126.991305,229.701203 L103.136606,235.097767 C103.958214,230.047881 107.811758,225.743455 113.208323,224.523065 L113.208323,224.523065 Z M127.125568,244.381943 C125.238823,247.11285 122.39018,249.030315 119.149954,249.750452 C113.719323,250.980861 108.296707,248.728452 105.308858,244.48815 L129.239707,239.07355 L133.137337,238.191824 L140.589927,236.506525 C140.544656,234.905117 140.336512,233.312475 139.968711,231.75322 C136.934771,218.87601 123.825107,210.848295 110.687387,213.820113 C97.5496681,216.793934 89.3576308,229.643089 92.3915703,242.518294 C95.4255097,255.395504 108.53317,263.425223 121.672893,260.453405 C129.414048,258.699973 135.435837,253.519832 138.455749,246.924921 L127.125568,244.381943 L127.125568,244.381943 Z M63.9258438,259.80213 L45.1591047,214.032528 L58.3248789,214.032528 L70.2141542,245.073296 L82.1996178,214.032528 L95.3653921,214.032528 L76.6006569,259.80213 L63.9258438,259.80213 Z M21.4667228,224.511042 C26.8652914,223.288649 32.2518365,225.502984 35.2517093,229.689179 L11.3950057,235.087748 C12.2166141,230.037862 16.0701581,225.733435 21.4667228,224.511042 Z M35.3839682,244.369919 C33.4975839,247.10158 30.6488941,249.019793 27.4083545,249.740433 C21.9777232,250.968838 16.5551075,248.718432 13.5672582,244.478131 L37.498107,239.063531 L41.3957372,238.181805 L48.848327,236.494502 C48.8029209,234.893765 48.5947772,233.301802 48.2271108,231.7432 C45.1931714,218.865991 32.0855109,210.836271 18.9457876,213.808089 C5.80806829,216.781911 -2.37996117,229.633069 0.649970436,242.510278 C3.68390989,255.387488 16.7935743,263.415203 29.9312936,260.443386 C37.6724483,258.691957 43.6942369,253.509812 46.7161529,246.916905 L35.3839682,244.371923 L35.3839682,244.369919 Z" id="Shape" fill="#FFFFFF" fill-rule="nonzero"></path>
    </g>
</svg>

<svg width="400" height="360" viewBox="0 0 400 360" xmlns="http://www.w3.org/2000/svg"><path d="M372.638 224.523c5.397-1.222 10.783.992 13.783 5.178l-23.857 5.397c.824-5.05 4.676-9.355 10.074-10.575zm13.917 19.859a13.166 13.166 0 01-7.975 5.368c-5.433 1.23-10.855-1.022-13.841-5.262l23.929-5.414 3.897-.882 7.455-1.685a23.61 23.61 0 00-.621-4.754c-3.034-12.877-16.144-20.905-29.282-17.933-13.137 2.974-21.33 15.823-18.296 28.698 3.032 12.878 16.142 20.907 29.28 17.935 7.74-1.753 13.763-6.933 16.785-13.528l-11.33-2.543zm-56.314 15.42v-34.139h-7.368v-11.63h7.368v-16.01h12.513v16.01h9.398v11.63h-9.398v34.14H330.24zm-23.903 0h12.084v-45.77h-12.084v45.77zm-1.57-61.827c0-4.236 3.34-7.414 7.662-7.414 4.323 0 7.565 3.178 7.565 7.414 0 4.238-3.242 7.51-7.565 7.51-4.322 0-7.663-3.272-7.663-7.51zm-2.636 16.186c-6.178.32-9.821 1.268-13.526 3.954v-4.082h-12.078v45.77h12.076v-22.445c0-7.062 1.723-11.08 13.528-11.474V214.16zm-67.334 23.476c.3 6.679 6.114 12.28 13.23 12.28 7.218 0 13.132-5.896 13.132-12.87 0-6.877-5.914-12.77-13.132-12.77-7.114 0-12.93 5.697-13.23 12.28v1.08zm-11.783 22.165v-67.608l12.084-2.734v27.98c3.733-2.987 8.156-4.24 12.97-4.24 13.754 0 24.758 10.594 24.758 23.884 0 13.191-11.002 23.977-24.759 23.977-4.813 0-9.236-1.25-12.97-4.237v2.98h-12.083v-.002zm-25.72 0V225.43h-7.368v-11.396h7.368V198.01l12.512-2.831v18.853h9.399v11.396h-9.399v34.373h-12.512zm-22.143 0v-24.454c0-8.86-4.816-10.785-9.631-10.785-4.814 0-9.627 1.83-9.627 10.593v24.646H143.81v-45.77h12.084v3.405c2.651-1.926 5.893-4.238 12.282-4.238 10.216 0 19.06 5.875 19.06 20.223v26.38h-12.084zm-61.944-35.279c5.399-1.222 10.785.992 13.783 5.178l-23.854 5.397c.821-5.05 4.675-9.355 10.071-10.575zm13.918 19.859a13.166 13.166 0 01-7.976 5.368c-5.43 1.23-10.853-1.022-13.841-5.262l23.93-5.414 3.898-.882 7.453-1.685a23.61 23.61 0 00-.621-4.754c-3.034-12.877-16.144-20.905-29.282-17.933-13.137 2.974-21.33 15.823-18.295 28.698 3.034 12.878 16.141 20.907 29.28 17.935 7.742-1.753 13.764-6.933 16.784-13.528l-11.33-2.543zm-63.2 15.42l-18.767-45.77h13.166l11.89 31.041 11.985-31.04h13.165l-18.764 45.77H63.926zm-42.46-35.291c5.4-1.222 10.786.992 13.786 5.178l-23.857 5.399c.822-5.05 4.675-9.355 10.072-10.577zm13.918 19.859a13.166 13.166 0 01-7.976 5.37c-5.43 1.229-10.853-1.022-13.84-5.262l23.93-5.414 3.898-.882 7.452-1.687a23.61 23.61 0 00-.62-4.752c-3.035-12.877-16.142-20.907-29.282-17.935C5.808 216.782-2.38 229.633.65 242.51c3.034 12.877 16.144 20.905 29.281 17.933 7.741-1.751 13.763-6.933 16.785-13.526l-11.332-2.545v-.002z" fill="#FFF"/></svg>
